icons/livewire-underwater-jelly.svg

<?xml version="1.0" encoding="UTF-8"?>
<svg width="106px" height="143px" viewBox="0 0 106 143" version="1.1" xmlns="http://www.w3.org/2000/svg" xmlns:xlink="http://www.w3.org/1999/xlink">
    <!-- Generator: Sketch 55.1 (78136) - https://sketchapp.com -->
    <title>Jelly Copy</title>
    <desc>Created with Sketch.</desc>
    <defs>
        <path d="M15,8.87182689 L15,31.3044021 C15,35.4465377 11.6421356,38.8044021 7.5,38.8044021 C3.35786438,38.8044021 5.07265313e-16,35.4465377 0,31.3044021 L0,4.65516162 C1.4303964,2.16015234 3.06443816,4.89173037e-13 6.01037519,4.8316906e-13 C10.6191185,4.73776196e-13 12.3462643,5.28691702 15,8.87182689 Z M44.280112,10.4668269 L44.280112,45.4845938 C44.280112,50.1875228 40.4676348,54 35.7647059,54 C31.0617769,54 27.2492997,50.1875228 27.2492997,45.4845938 L27.2492997,5.7954643 C28.8528627,2.85751859 30.5056985,4.8316906e-13 33.8939513,4.8316906e-13 C39.2581949,4.8316906e-13 40.7186591,7.16233198 44.280112,10.4668269 Z M71.5294118,9.81635177 L71.5294118,35.164758 C71.5294118,39.3973941 68.0981823,42.8286236 63.8655462,42.8286236 C59.6329102,42.8286236 56.2016807,39.3973941 56.2016807,35.164758 L56.2016807,3.92146979 C57.5360404,1.75130485 59.1249861,4.8316906e-13 61.7775273,4.8316906e-13 C66.8120684,4.8316906e-13 68.4079588,6.3089522 71.5294118,9.81635177 Z" id="path-1"></path>
        <path d="M15.3277311,16.168167 C13.9682595,14.5863649 12.3590178,13.4125691 10.0315923,13.4125691 C4.50502573,13.4125691 3.49056042,20.0309503 7.77156117e-16,23.0147759 L0,-5.15135185 C1.25800842e-15,-9.38398791 3.43122948,-12.8152174 7.66386555,-12.8152174 C11.8965016,-12.8152174 15.3277311,-9.38398791 15.3277311,-5.15135185 L15.3277311,16.168167 Z M44.280112,16.6788343 C42.830185,14.8456944 41.1353313,13.4125691 38.5636236,13.4125691 C32.4150051,13.4125691 31.8513859,21.6046845 27.2492997,23.8695652 L27.2492997,11.6682823 C27.2492997,6.96535338 31.0617769,3.15287618 35.7647059,3.15287618 C40.4676348,3.15287618 44.280112,6.96535338 44.280112,11.6682823 L44.280112,16.6788343 Z M71.5294118,15.2620078 C70.3496376,14.1583151 68.9507877,13.4125691 67.0956549,13.4125691 C61.1393885,13.4125691 60.4241474,21.1001412 56.2016807,23.6400329 L56.2016807,-1.60288661 C56.2016807,-5.83552267 59.6329102,-9.26675215 63.8655462,-9.26675215 C68.0981823,-9.26675215 71.5294118,-5.83552267 71.5294118,-1.60288661 L71.5294118,15.2620078 Z" id="path-3"></path>
        <path d="M100.046959,79.6540476 C98.0925006,82.6091034 96.607601,86.25 92.6339616,86.25 C85.9464237,86.25 85.5848384,75.9375 78.8937205,75.9375 C72.2026026,75.9375 72.5641879,86.25 65.87665,86.25 C59.1891121,86.25 58.8275268,75.9375 52.1364088,75.9375 C45.4452909,75.9375 45.8068762,86.25 39.1193383,86.25 C32.4318004,86.25 32.0702151,75.9375 25.3790972,75.9375 C18.6879792,75.9375 19.0495645,86.25 12.3620266,86.25 C10.2602699,86.25 8.78333809,85.2314172 7.53838058,83.8344912 C2.75303157,75.5062047 0,65.746755 0,55.3125 C0,24.7642498 23.5972273,0 52.7058824,0 C81.8145374,0 105.411765,24.7642498 105.411765,55.3125 C105.411765,64.0471157 103.482571,72.3088597 100.046959,79.6540476 Z" id="path-5"></path>
        <linearGradient x1="50%" y1="0%" x2="50%" y2="100%" id="linearGradient-7">
            <stop stop-color="#3DC5FF" offset="0%"></stop>
            <stop stop-color="#98E4FF" offset="100%"></stop>
        </linearGradient>
        <rect id="path-8" x="26" y="102" width="46" height="21"></rect>
    </defs>
    <g id="Page-1" stroke="none" stroke-width="1" fill="none" fill-rule="evenodd">
        <g id="Custom-Preset-3" transform="translate(-171.000000, -106.000000)">
            <g id="Jelly-Copy" transform="translate(160.000000, 106.000000)">
                <path d="M111.341076,104.654048 C109.386618,107.609103 107.901719,111.25 103.928079,111.25 C97.2405414,111.25 96.8789561,100.9375 90.1878382,100.9375 C83.4967202,100.9375 83.8583055,111.25 77.1707676,111.25 C70.4832297,111.25 70.1216444,100.9375 63.4305265,100.9375 C56.7394086,100.9375 57.1009938,111.25 50.4134559,111.25 C43.725918,111.25 43.3643327,100.9375 36.6732148,100.9375 C29.9820969,100.9375 30.3436822,111.25 23.6561443,111.25 C21.5543876,111.25 20.0774557,110.231417 18.8324982,108.834491 C14.0471492,100.506205 11.2941176,90.746755 11.2941176,80.3125 C11.2941176,49.7642498 34.891345,25 64,25 C93.108655,25 116.705882,49.7642498 116.705882,80.3125 C116.705882,89.0471157 114.776688,97.3088597 111.341076,104.654048 Z" id="Body-Copy-2" fill="#FB70A9"></path>
                <g id="Legs" transform="translate(30.117647, 88.750000)">
                    <mask id="mask-2" fill="white">
                        <use xlink:href="#path-1"></use>
                    </mask>
                    <use id="Combined-Shape" fill="#4E56A6" xlink:href="#path-1"></use>
                    <mask id="mask-4" fill="white">
                        <use xlink:href="#path-3"></use>
                    </mask>
                    <use id="Combined-Shape" fill-opacity="0.298513986" fill="#000000" xlink:href="#path-3"></use>
                </g>
                <path d="M111.341076,104.654048 C109.386618,107.609103 107.901719,111.25 103.928079,111.25 C97.2405414,111.25 96.8789561,100.9375 90.1878382,100.9375 C83.4967202,100.9375 83.8583055,111.25 77.1707676,111.25 C70.4832297,111.25 70.1216444,100.9375 63.4305265,100.9375 C56.7394086,100.9375 57.1009938,111.25 50.4134559,111.25 C43.725918,111.25 43.3643327,100.9375 36.6732148,100.9375 C29.9820969,100.9375 30.3436822,111.25 23.6561443,111.25 C21.5543876,111.25 20.0774557,110.231417 18.8324982,108.834491 C14.0471492,100.506205 11.2941176,90.746755 11.2941176,80.3125 C11.2941176,49.7642498 34.891345,25 64,25 C93.108655,25 116.705882,49.7642498 116.705882,80.3125 C116.705882,89.0471157 114.776688,97.3088597 111.341076,104.654048 Z" id="Body-Copy-4" fill="#FB70A9"></path>
                <path d="M101.89013,110.339908 C114.280106,90.309894 114.247756,68.0737125 101.79308,43.6313635 C110.988899,53.250262 116.705882,66.7321902 116.705882,81.6576087 C116.705882,90.0124584 114.914488,97.9149962 111.724277,104.940828 C109.909423,107.767403 108.530587,111.25 104.84078,111.25 C103.676583,111.25 102.718845,110.903305 101.89013,110.339908 Z" id="Combined-Shape" fill="#E24CA6"></path>
                <g id="goggles" transform="translate(11.294118, 25.000000)">
                    <mask id="mask-6" fill="white">
                        <use xlink:href="#path-5"></use>
                    </mask>
                    <g id="Body-Copy-5"></g>
                    <rect id="Rectangle" stroke="#088FDA" stroke-width="1.75" fill="#00B3FF" mask="url(#mask-6)" x="-12.6779412" y="38.375" width="124.744118" height="11"></rect>
                </g>
                <g id="Eyes-Copy-2" transform="translate(0.000000, 32.500000)">
                    <path d="M62.3589744,69.2211538 C39.8537171,69.2211538 28.2295626,57.0818979 28.2295626,36.4856167 C28.2295626,16.9413776 43.8404357,-0.278846154 62.3589744,-0.278846154 C80.877513,-0.278846154 96.4883861,16.9413776 96.4883861,36.4856167 C96.4883861,57.0818979 84.8642317,69.2211538 62.3589744,69.2211538 Z" id="Oval" stroke="#0097EB" stroke-width="2" fill="#31C2FF"></path>
                    <g id="EyeBall" transform="translate(36.102564, 7.500000)">
                        <path d="M26.2564103,53.9423077 C44.7331434,53.9423077 52.5128205,43.4630809 52.5128205,28.5810023 C52.5128205,13.6989238 40.7574252,-4.97379915e-14 26.2564103,-4.97379915e-14 C11.7553953,-4.97379915e-14 2.13162821e-14,13.6989238 2.13162821e-14,28.5810023 C2.13162821e-14,43.4630809 7.77967711,53.9423077 26.2564103,53.9423077 Z" id="Oval-Copy-9" fill="#FFFFFF"></path>
                        <g id="Pupil" transform="translate(9.350750, 8.173077)">
                            <ellipse id="Oval" fill="#030776" cx="9.84615385" cy="10.625" rx="9.84615385" ry="10.625"></ellipse>
                            <ellipse id="Oval" fill="#FFFFFF" cx="8.20512821" cy="8.17307692" rx="4.92307692" ry="4.90384615"></ellipse>
                        </g>
                    </g>
                    <path d="M62.3589744,61.4423077 C80.8357075,61.4423077 88.6153846,50.9630809 88.6153846,36.0810023 C88.6153846,21.1989238 76.8599893,7.5 62.3589744,7.5 C47.8579594,7.5 36.1025641,21.1989238 36.1025641,36.0810023 C36.1025641,50.9630809 43.8822412,61.4423077 62.3589744,61.4423077 Z" id="Oval-Copy-10" fill="url(#linearGradient-7)" opacity="0.389625186"></path>
                    <path d="M70.0235294,37.5 L80.5936652,26.9711538" id="Path-2" stroke="#FFF7F7" stroke-width="2.25"></path>
                    <path d="M65.5058824,50.25 L83.5764706,32.25" id="Path-2-Copy" stroke="#FFF7F7" stroke-width="2.25"></path>
                </g>
                <path d="M30,116 C33.3333333,117.333333 38.3333333,117.666667 45,117 L45,113 L30,112 L30,116 Z" id="Path-7" fill="#363C74"></path>
                <path d="M32.8784314,9.16460054 C32.8784314,9.16460054 32.8784314,9.16460054 32.8784314,9.16460054 C32.8784314,7.95294921 32.2030906,6.84232153 31.1273176,6.28481687 L20.4283884,0.740242802 C19.9380386,0.4861257 19.3345289,0.677630154 19.0804118,1.16797997 C19.0097767,1.30427894 18.9714704,1.45501055 18.9684609,1.60849561 L18.8235294,9 C28.1934641,27.6201643 32.8784314,27.6750312 32.8784314,9.16460054 Z" id="Path-5-Copy" fill="#0097EB"></path>
                <path d="M39.0328219,102.270669 C34.4938911,101.931703 32.1284314,99.2466522 32.1284314,94.4615385 L32.1284314,9.93211594 L19.5735294,9.76033216 L19.5735294,101.557692 C19.5735294,110.527789 26.2168979,115 39.9058824,115 C52.8772692,115 59.5223626,110.98438 60.1834091,102.931294 C59.4083242,103.621821 58.6756892,104.667564 57.5599013,106.485995 C57.5592989,106.486977 57.5592989,106.486977 57.5586965,106.487958 C55.0564922,110.565871 53.5562471,112 50.4134559,112 C47.2876244,112 45.7050069,110.582216 42.9270533,106.519246 C42.9263053,106.518152 42.9263053,106.518152 42.9255574,106.517058 C41.1869225,103.974172 40.3121603,102.950606 39.0328219,102.270669 Z" id="Combined-Shape" stroke="#0097EB" stroke-width="1.5" fill="#00B3FF"></path>
                <path d="M27,9 L27,81.5147186 C27,86.947753 29.1582645,92.1582645 33,96 L33,96 L33,9 L27,9 Z" id="Path-6" fill="#0097EB"></path>
                <mask id="mask-9" fill="white">
                    <use xlink:href="#path-8"></use>
                </mask>
                <g id="Rectangle" transform="translate(49.000000, 112.500000) scale(1, -1) translate(-49.000000, -112.500000) "></g>
                <path d="M64.1529748,99.5647838 C64.3128763,101.600334 64.1018134,102.9375 63.4305265,102.9375 C56.7394086,102.9375 57.1009938,113.25 50.4134559,113.25 C43.725918,113.25 41,102 38,102 C37.4957612,102 37.2384066,101.620053 37.192809,100.958905 C37.0239113,100.944763 36.8507921,100.9375 36.6732148,100.9375 C32.7925167,100.9375 44.6477933,77 54,77 C59.787493,77 64.6221899,94.4786895 64.1529748,99.5647838 Z M64.1529748,99.5647838 C63.6434303,93.0782691 59.366923,79.5 54.2117647,79.5 C46.074861,79.5 36.8875161,96.5322754 37.192809,100.958905 C43.3879807,101.477609 43.9034003,111.25 50.4134559,111.25 C57.1009938,111.25 56.7394086,100.9375 63.4305265,100.9375 C63.8394261,100.9375 64.0730829,100.430778 64.1529748,99.5647838 Z" id="Combined-Shape" fill="#007ABE" mask="url(#mask-9)"></path>
            </g>
        </g>
    </g>
</svg>

<svg xmlns="http://www.w3.org/2000/svg" xmlns:xlink="http://www.w3.org/1999/xlink" viewBox="0 0 105.412 142.122">
  <defs>
    <path id="a" d="M15 8.872v22.432a7.5 7.5 0 1 1-15 0V4.655C1.43 2.16 3.064 0 6.01 0c4.61 0 6.336 5.287 8.99 8.872zm29.28 1.595v35.018a8.515 8.515 0 1 1-17.03 0V5.795C28.852 2.858 30.505 0 33.893 0c5.364 0 6.825 7.162 10.386 10.467zm27.25-.65v25.348a7.664 7.664 0 0 1-15.328 0V3.92C57.536 1.751 59.125 0 61.778 0c5.034 0 6.63 6.309 9.751 9.816z"/>
    <path id="b" d="M15.328 16.168c-1.36-1.582-2.969-2.755-5.296-2.755-5.527 0-6.541 6.618-10.032 9.602V-5.151a7.664 7.664 0 0 1 15.328 0zm28.952.51c-1.45-1.832-3.145-3.265-5.716-3.265-6.149 0-6.713 8.192-11.315 10.457V11.668a8.515 8.515 0 0 1 17.031 0zm27.25-1.416c-1.18-1.104-2.58-1.85-4.434-1.85-5.957 0-6.672 7.688-10.894 10.228V-1.603a7.664 7.664 0 1 1 15.327 0z"/>
    <path id="c" d="M100.047 79.654c-1.954 2.955-3.44 6.596-7.413 6.596-6.688 0-7.05-10.313-13.74-10.313-6.691 0-6.33 10.313-13.017 10.313-6.688 0-7.05-10.313-13.74-10.313-6.692 0-6.33 10.313-13.018 10.313-6.687 0-7.049-10.313-13.74-10.313S19.05 86.25 12.362 86.25c-2.102 0-3.579-1.019-4.824-2.416C2.753 75.506 0 65.747 0 55.312 0 24.765 23.597 0 52.706 0s52.706 24.764 52.706 55.313c0 8.734-1.93 16.996-5.365 24.341z"/>
    <path id="f" d="M26 102h46v21H26z"/>
    <linearGradient id="e" x1="63.202" x2="63.202" y1="7.4" y2="60.623" gradientTransform="scale(.98666 1.01352)" gradientUnits="userSpaceOnUse">
      <stop offset="0%" stop-color="#3DC5FF"/>
      <stop offset="100%" stop-color="#98E4FF"/>
    </linearGradient>
  </defs>
  <g fill="none" fill-rule="evenodd" transform="translate(-11.294 -.628)">
    <path fill="#fb70a9" d="M111.341 104.654c-1.954 2.955-3.44 6.596-7.413 6.596-6.687 0-7.049-10.313-13.74-10.313s-6.33 10.313-13.017 10.313c-6.688 0-7.05-10.313-13.74-10.313-6.692 0-6.33 10.313-13.018 10.313-6.687 0-7.049-10.313-13.74-10.313-6.69 0-6.33 10.313-13.017 10.313-2.102 0-3.579-1.019-4.824-2.416-4.785-8.328-7.538-18.087-7.538-28.522C11.294 49.764 34.891 25 64 25s52.706 24.764 52.706 55.313c0 8.734-1.93 16.996-5.365 24.341z"/>
    <g transform="translate(30.118 88.75)">
      <use width="100%" height="100%" fill="#4e56a6" xlink:href="#a"/>
      <use width="100%" height="100%" fill="#000" fill-opacity=".299" xlink:href="#b"/>
    </g>
    <path fill="#fb70a9" d="M111.341 104.654c-1.954 2.955-3.44 6.596-7.413 6.596-6.687 0-7.049-10.313-13.74-10.313s-6.33 10.313-13.017 10.313c-6.688 0-7.05-10.313-13.74-10.313-6.692 0-6.33 10.313-13.018 10.313-6.687 0-7.049-10.313-13.74-10.313-6.69 0-6.33 10.313-13.017 10.313-2.102 0-3.579-1.019-4.824-2.416-4.785-8.328-7.538-18.087-7.538-28.522C11.294 49.764 34.891 25 64 25s52.706 24.764 52.706 55.313c0 8.734-1.93 16.996-5.365 24.341z"/>
    <path fill="#e24ca6" d="M101.89 110.34c12.39-20.03 12.358-42.266-.097-66.709 9.196 9.62 14.913 23.101 14.913 38.027 0 8.354-1.791 16.257-4.982 23.283-1.815 2.826-3.193 6.309-6.883 6.309a5.1 5.1 0 0 1-2.95-.91z"/>
    <g transform="translate(11.294 25)">
      <mask id="d" fill="#fff">
        <use width="100%" height="100%" xlink:href="#c"/>
      </mask>
      <path fill="#00b3ff" stroke="#088fda" stroke-width="1.75" d="M-12.678 38.375h124.744v11H-12.678z" mask="url(#d)"/>
    </g>
    <path fill="#31c2ff" stroke="#0097eb" stroke-width="2" d="M62.359 101.721c-22.505 0-34.13-12.14-34.13-32.735 0-19.545 15.611-36.765 34.13-36.765 18.519 0 34.13 17.22 34.13 36.765 0 20.596-11.625 32.735-34.13 32.735z"/>
    <path fill="#fff" d="M62.359 93.942c18.477 0 26.256-10.479 26.256-25.361C88.615 53.699 76.86 40 62.36 40S36.103 53.699 36.103 68.581s7.78 25.361 26.256 25.361z"/>
    <g transform="translate(45.453 48.173)">
      <ellipse cx="9.846" cy="10.625" fill="#030776" rx="9.846" ry="10.625"/>
      <ellipse cx="8.205" cy="8.173" fill="#fff" rx="4.923" ry="4.904"/>
    </g>
    <path fill="url(#e)" d="M62.359 61.442c18.477 0 26.256-10.479 26.256-25.361C88.615 21.199 76.86 7.5 62.36 7.5S36.103 21.199 36.103 36.081s7.78 25.361 26.256 25.361z" opacity=".39" style="fill:url(#e)" transform="translate(0 32.5)"/>
    <path stroke="#fff7f7" stroke-width="2.25" d="m70.024 70 10.57-10.529M65.506 82.75l18.07-18"/>
    <path fill="#363c74" d="M30 116c3.333 1.333 8.333 1.667 15 1v-4l-15-1z"/>
    <path fill="#0097eb" d="M32.878 9.165a3.244 3.244 0 0 0-1.75-2.88L20.427.74a1 1 0 0 0-1.46.868L18.824 9c9.37 18.62 14.054 18.675 14.054.165z"/>
    <path fill="#00b3ff" stroke="#0097eb" stroke-width="1.5" d="M39.033 102.27c-4.54-.338-6.905-3.023-6.905-7.808V9.932L19.574 9.76v91.798c0 8.97 6.643 13.442 20.332 13.442 12.971 0 19.616-4.016 20.277-12.069-.775.69-1.507 1.737-2.623 3.555l-.001.002c-2.503 4.078-4.003 5.512-7.146 5.512-3.125 0-4.708-1.418-7.486-5.48l-.001-.003c-1.74-2.543-2.614-3.566-3.893-4.246z"/>
    <path fill="#0097eb" d="M27 9v72.515A20.485 20.485 0 0 0 33 96V9z"/>
    <mask id="g" fill="#fff">
      <use width="100%" height="100%" xlink:href="#f"/>
    </mask>
    <path fill="#007abe" d="M64.153 99.565c.16 2.035-.051 3.373-.722 3.373-6.692 0-6.33 10.312-13.018 10.312C43.726 113.25 41 102 38 102c-.504 0-.762-.38-.807-1.041a6.2 6.2 0 0 0-.52-.021C32.793 100.938 44.648 77 54 77c5.787 0 10.622 17.479 10.153 22.565zm0 0c-.51-6.487-4.786-20.065-9.941-20.065-8.137 0-17.324 17.032-17.02 21.459 6.196.519 6.711 10.291 13.221 10.291 6.688 0 6.326-10.313 13.018-10.313.408 0 .642-.506.722-1.372z" mask="url(#g)"/>
  </g>
</svg>
